lib/flags/m/CYP.svg

<svg xmlns="http://www.w3.org/2000/svg" fill="none" viewBox="0 0 20 15"><mask id="CYP_svg__a" width="20" height="15" x="0" y="0" mask-type="alpha" maskUnits="userSpaceOnUse"><path fill="#fff" d="M0 0H20V15H0z"/></mask><g mask="url(#CYP_svg__a)"><path fill="#F7FCFF" fill-rule="evenodd" d="M0 0V15H20V0H0Z" clip-rule="evenodd"/><mask id="CYP_svg__b" width="20" height="15" x="0" y="0" mask-type="alpha" maskUnits="userSpaceOnUse"><path fill="#fff" fill-rule="evenodd" d="M0 0V15H20V0H0Z" clip-rule="evenodd"/></mask><g fill-rule="evenodd" clip-rule="evenodd" mask="url(#CYP_svg__b)"><path fill="#F57A01" d="M15.3546 2.9745C15.3546 2.9745 12.0532 4.79827 11.6377 4.91367C11.2221 5.02903 11.4994 5.09835 10.7835 5.05222C10.068 5.00604 8.65973 5.30969 8.33656 5.10192C8.01332 4.89401 7.89788 4.52471 7.87495 5.14815C7.85179 5.77131 8.3599 6.30229 7.71326 6.34852C7.0671 6.39461 6.99767 5.79425 6.55923 6.16384C6.12055 6.53305 5.75114 7.36422 5.47399 7.15645C5.19701 6.94854 4.80467 6.39461 4.92011 6.92559C5.03531 7.45648 5.38165 8.79373 6.4898 8.81687C7.59805 8.84005 7.8287 8.44752 7.87495 8.77078C7.92097 9.09386 8.4059 9.13999 8.52119 8.72446C8.6368 8.30893 9.58326 9.18789 10.0911 8.74926C10.5989 8.31073 11.0144 7.94129 11.1762 7.68734C11.3377 7.43339 11.8918 7.47967 12.4227 7.47967C12.9537 7.47967 13.7384 7.71043 13.3229 7.20268C12.9076 6.69459 12.1918 6.46388 12.6075 5.95598C13.0228 5.44814 16.5494 3.75944 16.7111 3.57471C16.8726 3.39004 15.8393 2.69751 15.3546 2.9745Z"/><path fill="url(#CYP_svg__c)" d="M15.3546 2.9745C15.3546 2.9745 12.0532 4.79827 11.6377 4.91367C11.2221 5.02903 11.4994 5.09835 10.7835 5.05222C10.068 5.00604 8.65973 5.30969 8.33656 5.10192C8.01332 4.89401 7.89788 4.52471 7.87495 5.14815C7.85179 5.77131 8.3599 6.30229 7.71326 6.34852C7.0671 6.39461 6.99767 5.79425 6.55923 6.16384C6.12055 6.53305 5.75114 7.36422 5.47399 7.15645C5.19701 6.94854 4.80467 6.39461 4.92011 6.92559C5.03531 7.45648 5.38165 8.79373 6.4898 8.81687C7.59805 8.84005 7.8287 8.44752 7.87495 8.77078C7.92097 9.09386 8.4059 9.13999 8.52119 8.72446C8.6368 8.30893 9.58326 9.18789 10.0911 8.74926C10.5989 8.31073 11.0144 7.94129 11.1762 7.68734C11.3377 7.43339 11.8918 7.47967 12.4227 7.47967C12.9537 7.47967 13.7384 7.71043 13.3229 7.20268C12.9076 6.69459 12.1918 6.46388 12.6075 5.95598C13.0228 5.44814 16.5494 3.75944 16.7111 3.57471C16.8726 3.39004 15.8393 2.69751 15.3546 2.9745Z"/><path fill="#006B49" d="M6.8201 10.0651C8.45897 10.0651 9.86728 11.8889 9.86728 11.8889C9.89097 11.9126 9.91286 11.9356 9.93303 11.958C9.9532 11.9356 9.97508 11.9126 9.99877 11.8889C9.99877 11.8889 11.6414 10.0651 13.2804 10.0651C14.9194 10.0651 12.0994 12.7199 10.2757 12.7199C10.2757 12.7199 10.0883 12.7029 9.93303 12.6248C9.77776 12.7029 9.59031 12.7199 9.59031 12.7199C7.76656 12.7199 5.1809 10.0651 6.8201 10.0651Z"/><path fill="url(#CYP_svg__d)" d="M6.8201 10.0651C8.45897 10.0651 9.86728 11.8889 9.86728 11.8889C9.89097 11.9126 9.91286 11.9356 9.93303 11.958C9.9532 11.9356 9.97508 11.9126 9.99877 11.8889C9.99877 11.8889 11.6414 10.0651 13.2804 10.0651C14.9194 10.0651 12.0994 12.7199 10.2757 12.7199C10.2757 12.7199 10.0883 12.7029 9.93303 12.6248C9.77776 12.7029 9.59031 12.7199 9.59031 12.7199C7.76656 12.7199 5.1809 10.0651 6.8201 10.0651Z"/></g></g><defs><linearGradient id="CYP_svg__c" x1="18.75" x2="18.75" y1="11.25" y2="1.25" gradientUnits="userSpaceOnUse"><stop stop-color="#EA5113"/><stop offset="1" stop-color="#FC9B58"/></linearGradient><linearGradient id="CYP_svg__d" x1="13.774" x2="13.774" y1="12.72" y2="10.065" gradientUnits="userSpaceOnUse"><stop stop-color="#008057"/><stop offset="1" stop-color="#00B77C"/></linearGradient></defs></svg>

<svg xmlns="http://www.w3.org/2000/svg" fill="none" viewBox="0 0 20 15"><mask id="CYP_svg__a" width="20" height="15" x="0" y="0" maskUnits="userSpaceOnUse"><path fill="#fff" d="M0 0h20v15H0z"/></mask><g mask="url(#CYP_svg__a)"><path fill="#F7FCFF" fill-rule="evenodd" d="M0 0v15h20V0H0z" clip-rule="evenodd"/><mask id="CYP_svg__b" width="20" height="15" x="0" y="0" maskUnits="userSpaceOnUse"><path fill="#fff" fill-rule="evenodd" d="M0 0v15h20V0H0z" clip-rule="evenodd"/></mask><g fill-rule="evenodd" clip-rule="evenodd" mask="url(#CYP_svg__b)"><path fill="#F57A01" d="M15.355 2.974s-3.302 1.824-3.717 1.94c-.416.115-.139.184-.854.138-.716-.046-2.124.258-2.447.05-.324-.208-.44-.577-.462.046-.023.623.485 1.154-.162 1.2-.646.047-.715-.554-1.154-.184-.438.37-.808 1.2-1.085.992-.277-.207-.67-.761-.554-.23.115.53.462 1.868 1.57 1.89 1.108.024 1.339-.368 1.385-.045.046.323.53.369.646-.047.116-.415 1.062.464 1.57.025.508-.438.923-.808 1.085-1.062.162-.254.716-.207 1.247-.207.53 0 1.315.23.9-.277-.415-.508-1.131-.74-.716-1.247.416-.508 3.942-2.197 4.104-2.381.162-.185-.872-.877-1.356-.6z"/><path fill="url(#CYP_svg__c)" d="M15.355 2.974s-3.302 1.824-3.717 1.94c-.416.115-.139.184-.854.138-.716-.046-2.124.258-2.447.05-.324-.208-.44-.577-.462.046-.023.623.485 1.154-.162 1.2-.646.047-.715-.554-1.154-.184-.438.37-.808 1.2-1.085.992-.277-.207-.67-.761-.554-.23.115.53.462 1.868 1.57 1.89 1.108.024 1.339-.368 1.385-.045.046.323.53.369.646-.047.116-.415 1.062.464 1.57.025.508-.438.923-.808 1.085-1.062.162-.254.716-.207 1.247-.207.53 0 1.315.23.9-.277-.415-.508-1.131-.74-.716-1.247.416-.508 3.942-2.197 4.104-2.381.162-.185-.872-.877-1.356-.6z"/><path fill="#006B49" d="M6.82 10.065c1.639 0 3.047 1.824 3.047 1.824l.066.069.066-.07s1.642-1.823 3.281-1.823c1.64 0-1.18 2.655-3.004 2.655 0 0-.188-.017-.343-.095a1.1 1.1 0 01-.343.095c-1.823 0-4.41-2.655-2.77-2.655z"/><path fill="url(#CYP_svg__d)" d="M6.82 10.065c1.639 0 3.047 1.824 3.047 1.824l.066.069.066-.07s1.642-1.823 3.281-1.823c1.64 0-1.18 2.655-3.004 2.655 0 0-.188-.017-.343-.095a1.1 1.1 0 01-.343.095c-1.823 0-4.41-2.655-2.77-2.655z"/></g></g><defs><linearGradient id="CYP_svg__c" x1="18.75" x2="18.75" y1="11.25" y2="1.25" gradientUnits="userSpaceOnUse"><stop stop-color="#EA5113"/><stop offset="1" stop-color="#FC9B58"/></linearGradient><linearGradient id="CYP_svg__d" x1="13.774" x2="13.774" y1="12.72" y2="10.065" gradientUnits="userSpaceOnUse"><stop stop-color="#008057"/><stop offset="1" stop-color="#00B77C"/></linearGradient></defs></svg>
